public/formular-icons/english/upper-r.svg

<svg style="vertical-align:-.048ex" xmlns="http://www.w3.org/2000/svg" width="1.717ex" height="1.593ex" viewBox="0 -683 759 704" xmlns:xlink="http://www.w3.org/1999/xlink"><defs><path id="a" d="M230 637q-27 0-32 1t-5 11q0 27 11 33 2 1 174 1 172-1 186-3 56-8 94-28t54-46 21-43 6-34q0-45-29-84t-67-60-67-34-38-13l7-5q67-38 67-110 0-11-5-61t-5-82v-9q0-18 1-28t11-18 26-9q28 0 46 22t26 47q5 14 8 17t15 3q20 0 20-12 0-18-24-57-38-57-90-57h-9q-61 0-101 25t-44 78q0 27 15 84t15 73q0 51-43 74-15 7-25 8t-71 2h-69l-32-130Q244 61 244 59q0-4 1-5t7-4 17-2 33-2h31q6-8 6-9t-3-18q-4-13-10-19h-15q-36 2-131 2H71Q54 2 50 1q-17 0-17 9 0 2 3 14 5 19 10 21 4 1 15 1h6q27 0 60 3 14 3 19 12 3 4 72 278t69 289q0 7-57 9Zm400-83q0 32-21 54t-86 28h-23q-21 0-38 1h-22q-47 0-54-10-1-3-34-133t-33-133q0-1 69-1 78 1 104 7 64 10 100 59 16 23 27 60t11 68Z"/></defs><g stroke="currentColor" fill="currentColor" stroke-width="0"><use data-c="1D445" xlink:href="#a" transform="scale(1 -1)"/></g></svg>

<svg style="vertical-align: -0.048ex" xmlns="http://www.w3.org/2000/svg" width="1.717ex" height="1.593ex" role="img" focusable="false" viewBox="0 -683 759 704" xmlns:xlink="http://www.w3.org/1999/xlink"><defs><path id="MJX-66-TEX-I-1D445" d="M230 637Q203 637 198 638T193 649Q193 676 204 682Q206 683 378 683Q550 682 564 680Q620 672 658 652T712 606T733 563T739 529Q739 484 710 445T643 385T576 351T538 338L545 333Q612 295 612 223Q612 212 607 162T602 80V71Q602 53 603 43T614 25T640 16Q668 16 686 38T712 85Q717 99 720 102T735 105Q755 105 755 93Q755 75 731 36Q693 -21 641 -21H632Q571 -21 531 4T487 82Q487 109 502 166T517 239Q517 290 474 313Q459 320 449 321T378 323H309L277 193Q244 61 244 59Q244 55 245 54T252 50T269 48T302 46H333Q339 38 339 37T336 19Q332 6 326 0H311Q275 2 180 2Q146 2 117 2T71 2T50 1Q33 1 33 10Q33 12 36 24Q41 43 46 45Q50 46 61 46H67Q94 46 127 49Q141 52 146 61Q149 65 218 339T287 628Q287 635 230 637ZM630 554Q630 586 609 608T523 636Q521 636 500 636T462 637H440Q393 637 386 627Q385 624 352 494T319 361Q319 360 388 360Q466 361 492 367Q556 377 592 426Q608 449 619 486T630 554Z"></path></defs><g stroke="currentColor" fill="currentColor" stroke-width="0" transform="scale(1,-1)"><g data-mml-node="math"><g data-mml-node="mi"><use data-c="1D445" xlink:href="#MJX-66-TEX-I-1D445"></use></g></g></g></svg>
